!!!OTL: N&auml;chtlicher Besuch mit dem Verlobungsring (177c), S. 389
!!!id: T0356
**kern
*clefG2
*k[]
*C:
{8g
=1
4cc
8b
8a
=2
4g
8a
8g
=3
4f
4g
=4
4e}
8r
=5
{8g
=6
4cc
8b
8a
=7
4g
8a
8g
=8
4f
4g
=9
4e}
8r
=10
{8g
=11
8g
8b
8dd
8dd
=12
8dd
8b
8g
8g
=13
8e
8g
8cc
8cc
=14
4cc}
=15
{8cc
8cc
=16
4a
8cc
8a
=17
4g
8a
8g
=18
4f
4g
=19
4e}
8r
=20
{8g
=21
8g
8b
8dd
8dd
=22
8dd
8b
8g
8g
=23
8e
8g
8cc
8cc
=24
4cc}
=25
{8cc
8cc
=26
4a
8cc
8a
=27
4g
8a
8g
=28
4f
4g
=29
4e}
8r
==
*-
!!!minrhy: 8
!!!meters: 2/4 ]  ZZ[6
!!!cut: N&auml;chtlicher Besuch mit dem Verlobungsring (177c), S. 389
!!!reg: Luxemburg
!!!trd: Singendes Volk, Esch-Alzette, 1937 posth.
!!!rhy1: X  X_XX  X_XX  X_X_  X_0
!!!rhy2: X  X_XX  X_XX  X_X_  X_0
!!!key: T0356  08  C 2/4 ]  ZZ[6
!!!mod: HEPTATONIK IONISCH]  AMBITUS[7b
!!!kad: 33+13+13
!!!akz: +1543_+1543_5+23+1_6543_5+23+1_6543_
!!!fot: 'a__a__b__c__b__c__
!!!for: 'a__a__b__av_b__av_
!!!fok: '^d_^d_~a_\__~a_\__
!! PHRAS[AUFTAKTIG]
!!!fkt: Tage-, W&auml;chter-, Fenstergang-, St&auml;ndchenlieder, Liebeslied
!!!bem: Heffingen, hhh Peter Wagener, 8.6.1935
!! THILL; Mathias
!! PR[19] 2K[9] 2G[25] 3K[0] 3G[6] 4A[2] 4Ü[0] 5A[0] 6K[0] 6G[0]
!! 7K[0] 7G[0] 8A[0] MEHR[0] SI[42] ABS[53] SR[34] SP[8]
!! ST[12] 2k[9] 2g[21] 3k[0] 3g[8] 4d[2] 4ü[0] 5d[0] 6k[0] 6g[0]
!! 7k[0] 7g[0] 8d[0] mehr[0] si[40] dm[+2] sr[30] sp[9]
!! 1F[4] 2F[68] 3F[28] 4F[0] LF[0] 2P[0] 3P[0] 4P[0] TRI[0] DF[3] AB[57]
!! TF[0] U3K[0] U3[0] U4[0] U4Ü[0] U5[4] U6K[0] U6[0] U7K[0] U7[4]
!! N1[28] N2K[0] N2[24] N3K[0] N3[28] N4[13] N4Ü[0] N5[0] N6K[0] N6[0]
!!!n7k: 0] N7[0] O1[0] O2K[0] O2[0] O3K[0] O3[0] HÖ[0
!!!RNB: symbol: &auml;      = a umlaut  (UTF-8: Å„)
